src/pages/settings/assets/twemoji_emoji.svg

<svg width="168" height="48" viewBox="0 0 168 48" fill="none" xmlns="http://www.w3.org/2000/svg">
<g clip-path="url(#clip0)">
<path d="M100 29.3333C96.0005 29.3333 91.0831 38.7919 90.6671 42.6666C90.1058 47.8866 93.3338 47.9999 93.3338 47.9999H108V34.6666C108 34.6666 103.416 29.3333 100 29.3333Z" fill="#50A5E6"/>
<path d="M98.6551 39.078C100.808 35.3486 101.707 31.8364 100.662 31.2334C99.6178 30.6303 97.0255 33.1646 94.8723 36.894C92.7191 40.6234 91.8204 44.1356 92.865 44.7387C93.9096 45.3418 96.5019 42.8074 98.6551 39.078Z" fill="#1C6399"/>
<path d="M86.7813 0C88.356 0 89.632 1.276 89.632 2.85067C89.632 3.90267 90.5227 17.2827 90.5227 17.2827L83.9307 24V2.85067C83.9307 1.276 85.2067 0 86.7813 0Z" fill="#F9CA55"/>
<path d="M85.167 5.76406C85.167 4.29873 86.303 3.11206 87.7043 3.11206C89.1057 3.11206 90.2417 4.30006 90.2417 5.76406C90.2417 5.76406 90.955 13.6867 91.831 18.2574C93.0017 20.7454 93.6563 24.5001 93.5123 26.5881C93.5843 27.1187 101.012 33.2627 101.012 33.2627C100.638 35.6801 98.0003 41.4694 94.667 44.1414L89.9723 40.2427C86.1257 39.7041 84.0283 35.8014 84.0283 34.5574C84.0283 30.5787 85.167 5.76406 85.167 5.76406V5.76406Z" fill="#FFDC5D"/>
<path d="M68 29.3333C72 29.3333 76.9173 38.7919 77.3333 42.6666C77.8947 47.8866 74.6667 47.9999 74.6667 47.9999H60V34.6666C60 34.6666 64.584 29.3333 68 29.3333Z" fill="#50A5E6"/>
<path d="M75.1331 44.7366C76.1777 44.1335 75.279 40.6213 73.1258 36.8919C70.9726 33.1625 68.3803 30.6281 67.3357 31.2312C66.2911 31.8343 67.1898 35.3465 69.343 39.0759C71.4962 42.8053 74.0885 45.3397 75.1331 44.7366Z" fill="#1C6399"/>
<path d="M81.4146 0.0146466C79.7266 -0.154687 78.3039 1.16665 78.3039 2.81865C78.3039 3.85865 78.0586 16.5773 78.0586 16.5773L83.8599 24L83.9426 2.97998C83.9426 1.50531 82.8826 0.161313 81.4146 0.0146466V0.0146466Z" fill="#F9CA55"/>
<path d="M82.8336 5.76406C82.8336 4.29873 81.6976 3.11206 80.2963 3.11206C78.8949 3.11206 77.7589 4.30006 77.7589 5.76406C77.7589 5.76406 77.0456 13.6867 76.1696 18.2574C74.9989 20.7454 74.3443 24.5001 74.4883 26.5881C74.4163 27.1187 66.9883 33.2627 66.9883 33.2627C67.3629 35.6801 70.0003 41.4694 73.3336 44.1414L78.0283 40.2427C81.8749 39.7041 83.9723 35.8014 83.9723 34.5574C83.9723 30.5787 82.8336 5.76406 82.8336 5.76406V5.76406Z" fill="#FFDC5D"/>
<path d="M83.9443 34.4307C83.3923 34.4307 82.9443 33.9827 82.9443 33.4307V3.72266C82.9443 3.17066 83.3923 2.72266 83.9443 2.72266C84.4963 2.72266 84.9443 3.17066 84.9443 3.72266V33.432C84.9457 33.9827 84.4977 34.4307 83.9443 34.4307V34.4307Z" fill="#F9CA55"/>
</g>
<g clip-path="url(#clip1)">
<path d="M135.501 9.98415C135.352 10.1335 135.238 10.3135 135.144 10.5108L135.133 10.5002L120.178 44.1881L120.193 44.2028C119.916 44.7401 120.38 45.8335 121.33 46.7855C122.281 47.7361 123.374 48.2001 123.912 47.9228L123.925 47.9361L157.613 32.9801L157.602 32.9681C157.798 32.8748 157.978 32.7615 158.129 32.6095C160.212 30.5268 156.834 23.7735 150.588 17.5255C144.338 11.2775 137.585 7.90148 135.501 9.98415V9.98415Z" fill="#DD2E44"/>
<path d="M137.333 16L120.554 43.3413L120.178 44.188L120.193 44.2027C119.916 44.74 120.38 45.8333 121.33 46.7853C121.64 47.0947 121.961 47.3293 122.276 47.528L142.666 22.6667L137.333 16Z" fill="#EA596E"/>
<path d="M150.683 17.4214C156.909 23.6507 160.367 30.2907 158.401 32.2534C156.437 34.2187 149.797 30.7627 143.567 24.5361C137.339 18.3067 133.883 11.6641 135.847 9.70006C137.812 7.73606 144.452 11.1921 150.683 17.4214V17.4214Z" fill="#A0041E"/>
<path d="M144.786 18.1453C144.521 18.36 144.174 18.472 143.808 18.432C142.65 18.3067 141.677 17.904 140.996 17.268C140.274 16.5947 139.918 15.6907 140.016 14.7853C140.186 13.196 141.781 11.7373 144.5 12.0307C145.557 12.144 146.029 11.804 146.045 11.6413C146.064 11.48 145.676 11.0467 144.618 10.932C143.461 10.8067 142.488 10.404 141.805 9.76799C141.084 9.09466 140.726 8.19066 140.825 7.28532C140.998 5.69599 142.592 4.23732 145.308 4.53199C146.078 4.61465 146.485 4.45599 146.657 4.35332C146.794 4.26932 146.849 4.18932 146.854 4.14265C146.87 3.98132 146.488 3.54799 145.428 3.43332C144.696 3.35332 144.165 2.69732 144.246 1.96399C144.325 1.23199 144.98 0.702655 145.714 0.782655C148.43 1.07465 149.678 2.83865 149.506 4.42932C149.333 6.02132 147.74 7.47732 145.021 7.18532C144.25 7.10132 143.848 7.26132 143.674 7.36399C143.537 7.44665 143.481 7.52799 143.476 7.57332C143.458 7.73599 143.844 8.16799 144.904 8.28265C147.62 8.57599 148.868 10.3387 148.696 11.9293C148.524 13.5187 146.93 14.9773 144.213 14.6827C143.442 14.6 143.037 14.76 142.864 14.8613C142.725 14.9467 142.672 15.0267 142.666 15.072C142.649 15.2333 143.034 15.6667 144.093 15.7813C144.824 15.8613 145.356 16.5187 145.274 17.2507C145.237 17.616 145.052 17.932 144.786 18.1453V18.1453Z" fill="#AA8DD8"/>
<path d="M160.881 30.4761C163.512 29.7334 165.327 30.9067 165.759 32.4467C166.191 33.9854 165.255 35.9334 162.625 36.6734C161.599 36.9614 161.291 37.4521 161.332 37.6081C161.377 37.7654 161.899 38.0241 162.923 37.7347C165.552 36.9947 167.367 38.1681 167.799 39.7067C168.233 41.2467 167.295 43.1921 164.664 43.9334C163.639 44.2214 163.329 44.7134 163.375 44.8694C163.419 45.0254 163.939 45.2841 164.964 44.9961C165.671 44.7974 166.409 45.2094 166.608 45.9174C166.805 46.6267 166.393 47.3627 165.684 47.5627C163.056 48.3027 161.24 47.1321 160.805 45.5907C160.373 44.0521 161.311 42.1067 163.943 41.3654C164.969 41.0761 165.277 40.5867 165.232 40.4294C165.189 40.2734 164.669 40.0134 163.645 40.3014C161.013 41.0427 159.2 39.8721 158.767 38.3294C158.333 36.7907 159.271 34.8454 161.901 34.1027C162.925 33.8161 163.233 33.3227 163.191 33.1681C163.145 33.0107 162.627 32.7521 161.601 33.0401C160.892 33.2401 160.157 32.8267 159.957 32.1187C159.759 31.4121 160.172 30.6761 160.881 30.4761V30.4761Z" fill="#77B255"/>
<path d="M150.667 26.88C150.275 26.88 149.889 26.708 149.625 26.38C149.165 25.804 149.259 24.9653 149.833 24.5053C150.123 24.272 157.057 18.8267 166.855 20.228C167.585 20.332 168.091 21.0067 167.987 21.736C167.883 22.464 167.214 22.976 166.478 22.8667C157.821 21.6373 151.562 26.5387 151.501 26.588C151.253 26.7853 150.959 26.88 150.667 26.88V26.88Z" fill="#AA8DD8"/>
<path d="M127.672 21.3335C127.545 21.3335 127.416 21.3148 127.288 21.2775C126.582 21.0655 126.182 20.3228 126.394 19.6175C127.905 14.5868 129.274 6.55879 127.592 4.46545C127.404 4.22812 127.12 3.99479 126.469 4.04412C125.218 4.14012 125.337 6.77879 125.338 6.80545C125.394 7.54012 124.842 8.18012 124.109 8.23479C123.364 8.28012 122.734 7.73879 122.68 7.00412C122.542 5.16545 123.114 1.62412 126.269 1.38545C127.677 1.27879 128.846 1.76812 129.672 2.79479C132.833 6.72945 129.624 18.1361 128.949 20.3841C128.776 20.9615 128.245 21.3335 127.672 21.3335Z" fill="#77B255"/>
<path d="M154 14.6667C155.105 14.6667 156 13.7713 156 12.6667C156 11.5622 155.105 10.6667 154 10.6667C152.895 10.6667 152 11.5622 152 12.6667C152 13.7713 152.895 14.6667 154 14.6667Z" fill="#5C913B"/>
<path d="M122.667 26.6666C124.139 26.6666 125.333 25.4727 125.333 23.9999C125.333 22.5272 124.139 21.3333 122.667 21.3333C121.194 21.3333 120 22.5272 120 23.9999C120 25.4727 121.194 26.6666 122.667 26.6666Z" fill="#9266CC"/>
<path d="M163.333 28C164.438 28 165.333 27.1046 165.333 26C165.333 24.8954 164.438 24 163.333 24C162.228 24 161.333 24.8954 161.333 26C161.333 27.1046 162.228 28 163.333 28Z" fill="#5C913B"/>
<path d="M151.333 44C152.438 44 153.333 43.1046 153.333 42C153.333 40.8954 152.438 40 151.333 40C150.228 40 149.333 40.8954 149.333 42C149.333 43.1046 150.228 44 151.333 44Z" fill="#5C913B"/>
<path d="M157.334 8.00008C158.806 8.00008 160 6.80617 160 5.33341C160 3.86066 158.806 2.66675 157.334 2.66675C155.861 2.66675 154.667 3.86066 154.667 5.33341C154.667 6.80617 155.861 8.00008 157.334 8.00008Z" fill="#FFCC4D"/>
<path d="M163.333 13.3333C164.438 13.3333 165.333 12.4378 165.333 11.3333C165.333 10.2287 164.438 9.33325 163.333 9.33325C162.228 9.33325 161.333 10.2287 161.333 11.3333C161.333 12.4378 162.228 13.3333 163.333 13.3333Z" fill="#FFCC4D"/>
<path d="M159.333 18.6667C160.438 18.6667 161.333 17.7713 161.333 16.6667C161.333 15.5622 160.438 14.6667 159.333 14.6667C158.228 14.6667 157.333 15.5622 157.333 16.6667C157.333 17.7713 158.228 18.6667 159.333 18.6667Z" fill="#FFCC4D"/>
<path d="M130 33.3333C131.105 33.3333 132 32.4378 132 31.3333C132 30.2287 131.105 29.3333 130 29.3333C128.895 29.3333 128 30.2287 128 31.3333C128 32.4378 128.895 33.3333 130 33.3333Z" fill="#FFCC4D"/>
</g>
<path d="M48 24C48 37.2547 37.2547 48 24 48C10.7467 48 0 37.2547 0 24C0 10.7467 10.7467 0 24 0C37.2547 0 48 10.7467 48 24Z" fill="#FFCC4D"/>
<path d="M15.3333 23.9999C17.1743 23.9999 18.6667 20.7167 18.6667 16.6666C18.6667 12.6165 17.1743 9.33325 15.3333 9.33325C13.4924 9.33325 12 12.6165 12 16.6666C12 20.7167 13.4924 23.9999 15.3333 23.9999Z" fill="#664500"/>
<path d="M32.6663 23.9999C34.5073 23.9999 35.9997 20.7167 35.9997 16.6666C35.9997 12.6165 34.5073 9.33325 32.6663 9.33325C30.8254 9.33325 29.333 12.6165 29.333 16.6666C29.333 20.7167 30.8254 23.9999 32.6663 23.9999Z" fill="#664500"/>
<path d="M23.9997 29.3333C19.169 29.3333 15.9637 28.7706 11.9997 27.9999C11.0943 27.8253 9.33301 27.9999 9.33301 30.6666C9.33301 35.9999 15.4597 42.6666 23.9997 42.6666C32.5383 42.6666 38.6663 35.9999 38.6663 30.6666C38.6663 27.9999 36.905 27.8239 35.9997 27.9999C32.0357 28.7706 28.8303 29.3333 23.9997 29.3333Z" fill="#664500"/>
<path d="M12 30.6667C12 30.6667 16 32.0001 24 32.0001C32 32.0001 36 30.6667 36 30.6667C36 30.6667 33.3333 36.0001 24 36.0001C14.6667 36.0001 12 30.6667 12 30.6667Z" fill="white"/>
<defs>
<clipPath id="clip0">
<rect width="48" height="48" fill="white" transform="translate(60)"/>
</clipPath>
<clipPath id="clip1">
<rect width="48" height="48" fill="white" transform="translate(120)"/>
</clipPath>
</defs>
</svg>

<svg xmlns="http://www.w3.org/2000/svg" width="168" height="48" fill="none" xmlns:v="https://vecta.io/nano"><g clip-path="url(#A)"><path d="M100 29.333c-3.999 0-8.917 9.459-9.333 13.333-.561 5.22 2.667 5.333 2.667 5.333H108V34.667s-4.584-5.333-8-5.333z" fill="#50a5e6"/><path d="M98.655 39.078c2.153-3.729 3.052-7.242 2.007-7.845s-3.637 1.931-5.79 5.661-3.052 7.242-2.007 7.845 3.637-1.931 5.79-5.661z" fill="#1c6399"/><path d="M86.781 0a2.85 2.85 0 0 1 2.851 2.851c0 1.052.891 14.432.891 14.432L83.931 24V2.851A2.85 2.85 0 0 1 86.781 0z" fill="#f9ca55"/><path d="M85.167 5.764c0-1.465 1.136-2.652 2.537-2.652s2.537 1.188 2.537 2.652c0 0 .713 7.923 1.589 12.493 1.171 2.488 1.825 6.243 1.681 8.331.072.531 7.5 6.675 7.5 6.675-.374 2.417-3.012 8.207-6.345 10.879l-4.695-3.899c-3.847-.539-5.944-4.441-5.944-5.685 0-3.979 1.139-28.793 1.139-28.793h0z" fill="#ffdc5d"/><path d="M68 29.333c4 0 8.917 9.459 9.333 13.333.561 5.22-2.667 5.333-2.667 5.333H60V34.667s4.584-5.333 8-5.333z" fill="#50a5e6"/><path d="M75.133 44.737c1.045-.603.146-4.115-2.007-7.845s-4.745-6.264-5.79-5.661-.146 4.115 2.007 7.845 4.745 6.264 5.79 5.661z" fill="#1c6399"/><path d="M81.415.015a2.82 2.82 0 0 0-3.111 2.804c0 1.04-.245 13.759-.245 13.759L83.86 24l.083-21.02c0-1.475-1.06-2.819-2.528-2.965h0z" fill="#f9ca55"/><path d="M82.834 5.764c0-1.465-1.136-2.652-2.537-2.652S77.759 4.3 77.759 5.764c0 0-.713 7.923-1.589 12.493-1.171 2.488-1.825 6.243-1.681 8.331-.072.531-7.5 6.675-7.5 6.675.375 2.417 3.012 8.207 6.345 10.879l4.695-3.899c3.847-.539 5.944-4.441 5.944-5.685 0-3.979-1.139-28.793-1.139-28.793h0z" fill="#ffdc5d"/><path d="M83.944 34.431a1 1 0 0 1-1-1V3.723a1 1 0 1 1 2 0v29.709a1 1 0 0 1-1 .999h0z" fill="#f9ca55"/></g><g clip-path="url(#B)"><path d="M135.501 9.984c-.149.149-.263.329-.357.527l-.011-.011-14.955 33.688.015.015c-.277.537.187 1.631 1.137 2.583s2.044 1.415 2.582 1.137l.013.013 33.688-14.956-.011-.012c.196-.093.376-.207.527-.359 2.083-2.083-1.295-8.836-7.541-15.084s-13.003-9.624-15.087-7.541h0z" fill="#dd2e44"/><path d="M137.333 16l-16.779 27.341-.376.847.015.015c-.277.537.187 1.631 1.137 2.583.31.309.631.544.946.743l20.39-24.861L137.333 16z" fill="#ea596e"/><path d="M150.683 17.421c6.226 6.229 9.684 12.869 7.718 14.832s-8.604-1.491-14.834-7.717-9.684-12.872-7.72-14.836 8.605 1.492 14.836 7.721h0z" fill="#a0041e"/><path d="M144.786 18.145a1.32 1.32 0 0 1-.978.287c-1.158-.125-2.131-.528-2.812-1.164-.722-.673-1.078-1.577-.98-2.483.17-1.589 1.765-3.048 4.484-2.755 1.057.113 1.529-.227 1.545-.389s-.369-.595-1.427-.709c-1.157-.125-2.13-.528-2.813-1.164-.721-.673-1.079-1.577-.98-2.483.173-1.589 1.767-3.048 4.483-2.753.77.083 1.177-.076 1.349-.179.137-.084.192-.164.197-.211.016-.161-.366-.595-1.426-.709-.732-.08-1.263-.736-1.182-1.469a1.33 1.33 0 0 1 1.468-1.181c2.716.292 3.964 2.056 3.792 3.647s-1.766 3.048-4.485 2.756c-.771-.084-1.173.076-1.347.179-.137.083-.193.164-.198.209-.018.163.368.595 1.428.709 2.716.293 3.964 2.056 3.792 3.647s-1.766 3.048-4.483 2.753c-.771-.083-1.176.077-1.349.179-.139.085-.192.165-.198.211-.017.161.368.595 1.427.709.731.08 1.263.737 1.181 1.469-.037.365-.222.681-.488.895h0z" fill="#aa8dd8"/><path d="M160.881 30.476c2.631-.743 4.446.431 4.878 1.971s-.504 3.487-3.134 4.227c-1.026.288-1.334.779-1.293.935s.567.416 1.591.127c2.629-.74 4.444.433 4.876 1.972s-.504 3.485-3.135 4.227c-1.025.288-1.335.78-1.289.936s.564.415 1.589.127c.707-.199 1.445.213 1.644.921s-.215 1.445-.924 1.645c-2.628.74-4.444-.431-4.879-1.972s.506-3.484 3.138-4.225c1.026-.289 1.334-.779 1.289-.936s-.563-.416-1.587-.128c-2.632.741-4.445-.429-4.878-1.972s.504-3.484 3.134-4.227c1.024-.287 1.332-.78 1.29-.935s-.564-.416-1.59-.128c-.709.2-1.444-.213-1.644-.921s.215-1.443.924-1.643h0z" fill="#77b255"/><path d="M150.667 26.88c-.392 0-.778-.172-1.042-.5-.46-.576-.366-1.415.208-1.875.29-.233 7.224-5.679 17.022-4.277.73.104 1.236.779 1.132 1.508s-.773 1.24-1.509 1.131c-8.657-1.229-14.916 3.672-14.977 3.721-.248.197-.542.292-.834.292h0z" fill="#aa8dd8"/><path d="M127.672 21.334a1.37 1.37 0 0 1-.384-.056c-.706-.212-1.106-.955-.894-1.66 1.511-5.031 2.88-13.059 1.198-15.152-.188-.237-.472-.471-1.123-.421-1.251.096-1.132 2.735-1.131 2.761.056.735-.496 1.375-1.229 1.429-.745.045-1.375-.496-1.429-1.231-.138-1.839.434-5.38 3.589-5.619 1.408-.107 2.577.383 3.403 1.409 3.161 3.935-.048 15.341-.723 17.589-.173.577-.704.949-1.277.949z" fill="#77b255"/><path d="M154 14.667a2 2 0 1 0 0-4 2 2 0 1 0 0 4z" fill="#5c913b"/><path d="M122.667 26.667c1.472 0 2.666-1.194 2.666-2.667s-1.194-2.667-2.666-2.667S120 22.527 120 24s1.194 2.667 2.667 2.667z" fill="#9266cc"/><g fill="#5c913b"><path d="M163.333 28a2 2 0 1 0 0-4 2 2 0 1 0 0 4zm-12 16a2 2 0 1 0 0-4 2 2 0 1 0 0 4z"/></g><g fill="#ffcc4d"><path d="M157.334 8C158.806 8 160 6.806 160 5.333s-1.194-2.667-2.666-2.667a2.67 2.67 0 0 0-2.667 2.667A2.67 2.67 0 0 0 157.334 8zm5.999 5.333a2 2 0 1 0 0-4 2 2 0 1 0 0 4zm-4 5.334a2 2 0 0 0 0-4 2 2 0 1 0 0 4zM130 33.333a2 2 0 1 0 0-4 2 2 0 1 0 0 4z"/></g></g><path d="M48 24c0 13.255-10.745 24-24 24S0 37.255 0 24 10.747 0 24 0s24 10.747 24 24z" fill="#ffcc4d"/><path d="M15.333 24c1.841 0 3.333-3.283 3.333-7.333s-1.492-7.333-3.333-7.333S12 12.617 12 16.667 13.492 24 15.333 24zm17.333 0C34.507 24 36 20.717 36 16.667s-1.492-7.333-3.333-7.333-3.333 3.283-3.333 7.333S30.825 24 32.666 24zM24 29.333c-4.831 0-8.036-.563-12-1.333-.905-.175-2.667 0-2.667 2.667 0 5.333 6.127 12 14.667 12s14.667-6.667 14.667-12C38.666 28 36.905 27.824 36 28c-3.964.771-7.169 1.333-12 1.333z" fill="#664500"/><path d="M12 30.667S16 32 24 32s12-1.333 12-1.333S33.333 36 24 36s-12-5.333-12-5.333z" fill="#fff"/><defs><clipPath id="A"><path fill="#fff" transform="translate(60)" d="M0 0h48v48H0z"/></clipPath><clipPath id="B"><path fill="#fff" transform="translate(120)" d="M0 0h48v48H0z"/></clipPath></defs></svg>
